X: 9761
T: Delia Keane's
R: jig
M: 6/8
K: Gmajor
E|:D3 BGG|dGG ABc|Add d2B|A3 BGE|
D3 BGG|dGG ABc|Add d2B|1 AGG G2E:|2 AGG G2A||
|:B2d dB/c/d|e3 dBG|c2e dBG|EAA A2c|
B2d dB/c/d|e3 dBG|c2e BGd|1 AGG G2A:|2 AGG G2||

